dist/img/premium_support.svg

<?xml version="1.0" encoding="UTF-8"?>
<svg width="511px" height="318px" viewBox="0 0 511 318" version="1.1" xmlns="http://www.w3.org/2000/svg" xmlns:xlink="http://www.w3.org/1999/xlink">
    <!-- Generator: Sketch 54.1 (76490) - https://sketchapp.com -->
    <title>images/Premium Support</title>
    <desc>Created with Sketch.</desc>
    <defs>
        <filter x="-2.1%" y="-3.4%" width="104.2%" height="107.0%" filterUnits="objectBoundingBox" id="filter-1">
            <feOffset dx="0" dy="2" in="SourceAlpha" result="shadowOffsetOuter1"></feOffset>
            <feGaussianBlur stdDeviation="1.5" in="shadowOffsetOuter1" result="shadowBlurOuter1"></feGaussianBlur>
            <feColorMatrix values="0 0 0 0 0   0 0 0 0 0   0 0 0 0 0  0 0 0 0.15 0" type="matrix" in="shadowBlurOuter1" result="shadowMatrixOuter1"></feColorMatrix>
            <feMerge>
                <feMergeNode in="shadowMatrixOuter1"></feMergeNode>
                <feMergeNode in="SourceGraphic"></feMergeNode>
            </feMerge>
        </filter>
        <polygon id="path-2" points="0.267093555 0.399127517 403.637156 0.399127517 403.637156 294.959856 0.267093555 294.959856"></polygon>
        <polygon id="path-4" points="0 311.949664 504.689231 311.949664 504.689231 0.399127517 0 0.399127517"></polygon>
        <polygon id="path-6" points="0.793721414 0.273087248 144.32396 0.273087248 144.32396 129.617564 0.793721414 129.617564"></polygon>
        <polygon id="path-8" points="0.955090437 0.423600336 173.179304 0.423600336 173.179304 158.390918 0.955090437 158.390918"></polygon>
        <polygon id="path-10" points="0.793721414 249.506164 367.410073 249.506164 367.410073 0.273087248 0.793721414 0.273087248"></polygon>
        <polygon id="path-12" points="0 0.76212349 504.689231 0.76212349 504.689231 26.2579691 0 26.2579691"></polygon>
        <polygon id="path-14" points="0 311.949664 504.689231 311.949664 504.689231 0.399127517 0 0.399127517"></polygon>
    </defs>
    <g id="HP" stroke="none" stroke-width="1" fill="none" fill-rule="evenodd">
        <g transform="translate(-553.000000, -1746.000000)" id="Benefits">
            <g transform="translate(-182.000000, 740.000000)">
                <g id="images/Premium-Support" transform="translate(738.000000, 1006.000000)">
                    <g id="Group-31" filter="url(#filter-1)">
                        <g id="Group-6" transform="translate(0.000000, 0.651208)">
                            <g id="Group-3" transform="translate(50.395010, 0.000000)">
                                <mask id="mask-3" fill="white">
                                    <use xlink:href="#path-2"></use>
                                </mask>
                                <g id="Clip-2"></g>
                                <path d="M403.637156,283.615182 C403.637156,289.891987 398.557759,294.959856 392.312977,294.959856 L11.5870728,294.959856 C5.34229106,294.959856 0.267093555,289.891987 0.267093555,283.615182 L0.267093555,11.7452725 C0.267093555,5.46846711 5.34229106,0.398497315 11.5870728,0.398497315 L392.312977,0.398497315 C398.557759,0.398497315 403.637156,5.46846711 403.637156,11.7452725 L403.637156,283.615182 Z" id="Fill-1" fill="#FFFFFF" mask="url(#mask-3)"></path>
                            </g>
                            <mask id="mask-5" fill="white">
                                <use xlink:href="#path-4"></use>
                            </mask>
                            <g id="Clip-5"></g>
                            <polygon id="Fill-4" fill="#191551" mask="url(#mask-5)" points="69.2868399 269.463591 435.902141 269.463591 435.902141 20.2294631 69.2868399 20.2294631"></polygon>
                        </g>
                        <g id="Group-12" transform="translate(68.243243, 20.607584)">
                            <g id="Group-9">
                                <mask id="mask-7" fill="white">
                                    <use xlink:href="#path-6"></use>
                                </mask>
                                <g id="Clip-8"></g>
                                <path d="M122.128108,-6.28709866 L2.53759875,-6.28709866 C-9.72098753,-6.28709866 -19.6582536,3.65432752 -19.6582536,15.9180456 L-19.6582536,85.5605456 C-19.6582536,97.8242638 -9.72098753,107.76569 2.53759875,107.76569 L51.0029002,107.76569 C54.8045738,120.289891 66.3691788,129.466673 80.1459148,129.615821 C82.8357484,129.64418 85.4468399,129.325928 87.940343,128.70413 C81.00158,123.954512 76.1248129,116.438311 74.851289,107.76569 L122.128108,107.76569 C134.386694,107.76569 144.32396,97.8242638 144.32396,85.5605456 L144.32396,15.9180456 C144.32396,3.65432752 134.386694,-6.28709866 122.128108,-6.28709866" id="Fill-7" fill="#1DAFF4" mask="url(#mask-7)"></path>
                            </g>
                            <path d="M52.9667308,79.6045128 C52.9667308,77.664543 53.5788202,76.0942913 54.8061486,74.8958584 C56.0334771,73.6963752 57.5883732,73.0976839 59.4708368,73.0976839 C61.4099948,73.0976839 62.9942879,73.6963752 64.2216164,74.8958584 C65.4489449,76.0942913 66.0620842,77.664543 66.0620842,79.6045128 C66.0620842,81.5465832 65.4489449,83.1294389 64.2216164,84.3562309 C62.9942879,85.5830228 61.4099948,86.1974691 59.4708368,86.1974691 C57.5883732,86.1974691 56.0334771,85.5830228 54.8061486,84.3562309 C53.5788202,83.1294389 52.9667308,81.5465832 52.9667308,79.6045128 L52.9667308,79.6045128 Z M54.2507536,64.4481705 C54.2507536,62.5649188 54.5205769,60.8959356 55.0644231,59.4401705 C55.6061694,57.9844054 56.2907017,56.6567812 57.1180198,55.4583483 C57.9442879,54.2599154 58.842999,53.1465597 59.8141528,52.1193315 C60.7832069,51.0921034 61.6819179,50.0638248 62.509236,49.0355463 C63.3355042,48.0083181 64.0210863,46.9380262 64.5638825,45.8246705 C65.1056289,44.7123651 65.377552,43.4708685 65.377552,42.1001805 C65.377552,39.989006 64.6625728,38.2475497 63.2378638,36.8768617 C61.8110551,35.5072242 59.9275416,34.8224054 57.5883732,34.8224054 C53.7079574,34.8224054 49.6574584,36.6205799 45.4347765,40.2169289 L45.4347765,30.0265732 C49.9986746,26.8314523 54.8502443,25.2317913 59.9852859,25.2317913 C62.4955873,25.2317913 64.79171,25.6183148 66.8757536,26.3882107 C68.9566476,27.159157 70.740421,28.229449 72.224974,29.5990866 C73.7074272,30.9697745 74.8633628,32.595694 75.6906809,34.479996 C76.517999,36.364298 76.931658,38.4187544 76.931658,40.6454658 C76.931658,43.7271503 76.3038202,46.3823987 75.0491944,48.6080597 C73.7935187,50.8347711 72.3961071,52.8619188 70.8548597,54.687402 C69.3136123,56.5149859 67.9162006,58.2553919 66.6605249,59.9107208 C65.4048493,61.5671 64.7780613,63.3652745 64.7780613,65.3052443 L64.7780613,67.2746235 L54.2507536,67.2746235 L54.2507536,64.4481705 Z" id="Fill-10" fill="#FFFFFF"></path>
                        </g>
                        <g id="Group-17" transform="translate(130.187110, 189.711611)">
                            <path d="M0.388881497,8.60991577 L0.388881497,33.3274628 C0.388881497,37.6800534 3.91548233,41.2081305 8.26625156,41.2081305 L25.4677484,41.2081305 C26.8168649,45.6531507 30.9219584,48.9102413 35.8113243,48.9627581 C36.7656798,48.9732614 37.692738,48.8598252 38.5778004,48.6392547 C36.1147443,46.9534661 34.3834657,44.2856138 33.9320104,41.2081305 L50.7114491,41.2081305 C55.0611684,41.2081305 58.5888191,37.6800534 58.5888191,33.3274628 L58.5888191,8.60991577 C58.5888191,4.25732517 55.0611684,0.729247987 50.7114491,0.729247987 L8.26625156,0.729247987 C3.91548233,0.729247987 0.388881497,4.25732517 0.388881497,8.60991577" id="Fill-13" fill="#03E59F"></path>
                            <path d="M12.8692058,19.9302225 C12.8692058,18.0049574 14.4293514,16.4452091 16.3527609,16.4452091 C18.2772204,16.4452091 19.8373659,18.0049574 19.8373659,19.9302225 C19.8373659,21.8554876 18.2772204,23.4152359 16.3527609,23.4152359 C14.4293514,23.4152359 12.8692058,21.8554876 12.8692058,19.9302225 M25.4448607,19.9302225 C25.4448607,18.0049574 27.0039563,16.4452091 28.9284158,16.4452091 C30.8518254,16.4452091 32.4119709,18.0049574 32.4119709,19.9302225 C32.4119709,21.8554876 30.8518254,23.4152359 28.9284158,23.4152359 C27.0039563,23.4152359 25.4448607,21.8554876 25.4448607,19.9302225 M38.0205156,19.9302225 C38.0205156,18.0049574 39.5796112,16.4452091 41.5030208,16.4452091 C43.4274802,16.4452091 44.9876258,18.0049574 44.9876258,19.9302225 C44.9876258,21.8554876 43.4274802,23.4152359 41.5030208,23.4152359 C39.5796112,23.4152359 38.0205156,21.8554876 38.0205156,19.9302225" id="Fill-15" fill="#FFFFFF"></path>
                        </g>
                        <g id="Group-24" transform="translate(68.243243, 20.607584)">
                            <g id="Group-20" transform="translate(194.230769, 48.315436)">
                                <mask id="mask-9" fill="white">
                                    <use xlink:href="#path-8"></use>
                                </mask>
                                <g id="Clip-19"></g>
                                <path d="M165.759373,0.423600336 L26.7541861,0.423600336 C12.5049969,0.423600336 0.955090437,11.9783419 0.955090437,26.2334963 L0.955090437,107.182859 C0.955090437,121.436963 12.5049969,132.992755 26.7541861,132.992755 L81.7057453,132.992755 C80.2264418,143.072825 74.5570031,151.809516 66.4917017,157.33008 C69.3894148,158.051661 72.4257141,158.422429 75.5512547,158.388818 C91.5653191,158.216563 105.007138,147.550406 109.426151,132.992755 L165.759373,132.992755 C180.007512,132.992755 191.558469,121.436963 191.558469,107.182859 L191.558469,26.2334963 C191.558469,11.9783419 180.007512,0.423600336 165.759373,0.423600336" id="Fill-18" fill="#FC3E54" mask="url(#mask-9)"></path>
                            </g>
                            <mask id="mask-11" fill="white">
                                <use xlink:href="#path-10"></use>
                            </mask>
                            <g id="Clip-22"></g>
                            <polygon id="Fill-21" fill="#FFFFFF" mask="url(#mask-11)" points="236.523732 147.025973 344.451996 147.025973 344.451996 81.3432383 236.523732 81.3432383"></polygon>
                            <polygon id="Fill-23" fill="#EFEFEF" mask="url(#mask-11)" points="344.451366 81.3435534 290.487759 116.004627 236.523102 81.3435534"></polygon>
                        </g>
                        <g id="Group-30" transform="translate(0.000000, 0.651208)">
                            <g id="Group-27" transform="translate(0.000000, 285.691275)">
                                <mask id="mask-13" fill="white">
                                    <use xlink:href="#path-12"></use>
                                </mask>
                                <g id="Clip-26"></g>
                                <path d="M-0.00020997921,0.76212349 C1.50429106,15.0267309 16.4516611,26.2579691 34.84479,26.2579691 L469.837721,26.2579691 C488.241349,26.2579691 503.17822,15.0267309 504.690071,0.76212349 L-0.00020997921,0.76212349 Z" id="Fill-25" fill="#EFEFEF" mask="url(#mask-13)"></path>
                            </g>
                            <mask id="mask-15" fill="white">
                                <use xlink:href="#path-14"></use>
                            </mask>
                            <g id="Clip-29"></g>
                            <polygon id="Fill-28" fill="#CCCCCC" mask="url(#mask-15)" points="185.814802 294.959436 318.875478 294.959436 318.875478 286.452768 185.814802 286.452768"></polygon>
                        </g>
                    </g>
                </g>
            </g>
        </g>
    </g>
</svg>

<svg width="511" height="318" xmlns="http://www.w3.org/2000/svg" xmlns:xlink="http://www.w3.org/1999/xlink"><defs><path id="path-2" d="M.267.4h403.37v294.56H.267z"/><path id="path-4" d="M0 311.95h504.69V.4H0z"/><path id="path-6" d="M.794.273h143.53v129.345H.794z"/><path id="path-8" d="M.955.424H173.18V158.39H.955z"/><path id="path-10" d="M.794 249.506H367.41V.273H.794z"/><path id="path-12" d="M0 .762h504.69v25.496H0z"/><path id="path-14" d="M0 311.95h504.69V.4H0z"/><filter x="-2.1%" y="-3.4%" width="104.2%" height="107%" filterUnits="objectBoundingBox" id="filter-1"><feOffset dy="2" in="SourceAlpha" result="shadowOffsetOuter1"/><feGaussianBlur stdDeviation="1.5" in="shadowOffsetOuter1" result="shadowBlurOuter1"/><feColorMatrix values="0 0 0 0 0 0 0 0 0 0 0 0 0 0 0 0 0 0 0.15 0" in="shadowBlurOuter1" result="shadowMatrixOuter1"/><feMerge><feMergeNode in="shadowMatrixOuter1"/><feMergeNode in="SourceGraphic"/></feMerge></filter></defs><g id="HP" stroke="none" stroke-width="1" fill="none" fill-rule="evenodd"><g transform="translate(-735 -1006)" id="Benefits"><g id="images/Premium-Support" transform="translate(738 1006)"><g id="Group-31" filter="url(#filter-1)"><g id="Group-6" transform="translate(0 .651)"><g id="Group-3" transform="translate(50.395)"><mask id="mask-3" fill="#fff"><use xlink:href="#path-2"/></mask><path d="M403.637 283.615c0 6.277-5.08 11.345-11.324 11.345H11.587c-6.245 0-11.32-5.068-11.32-11.345V11.745C.267 5.468 5.342.398 11.587.398h380.726c6.245 0 11.324 5.07 11.324 11.347v271.87z" id="Fill-1" fill="#FFF" mask="url(#mask-3)"/></g><mask id="mask-5" fill="#fff"><use xlink:href="#path-4"/></mask><path id="Fill-4" fill="#191551" mask="url(#mask-5)" d="M69.287 269.464h366.615V20.229H69.287z"/></g><g id="Group-12" transform="translate(68.243 20.608)"><g id="Group-9"><mask id="mask-7" fill="#fff"><use xlink:href="#path-6"/></mask><path d="M122.128-6.287H2.538c-12.259 0-22.196 9.941-22.196 22.205v69.643c0 12.263 9.937 22.205 22.196 22.205h48.465c3.802 12.524 15.366 21.7 29.143 21.85 2.69.028 5.3-.29 7.794-.912-6.938-4.75-11.815-12.266-13.089-20.938h47.277c12.259 0 22.196-9.942 22.196-22.205V15.918c0-12.264-9.937-22.205-22.196-22.205" id="Fill-7" fill="#1DAFF4" mask="url(#mask-7)"/></g><path d="M52.967 79.605c0-1.94.612-3.51 1.84-4.71 1.226-1.199 2.781-1.797 4.664-1.797 1.939 0 3.523.598 4.75 1.798 1.228 1.198 1.841 2.769 1.841 4.709 0 1.942-.613 3.524-1.84 4.751-1.228 1.227-2.812 1.841-4.751 1.841-1.883 0-3.438-.614-4.665-1.84-1.227-1.228-1.84-2.81-1.84-4.752zm1.284-15.157c0-1.883.27-3.552.813-5.008a18.062 18.062 0 012.054-3.982 27.91 27.91 0 012.696-3.339 52.057 52.057 0 002.695-3.083 17.033 17.033 0 002.055-3.211c.542-1.113.814-2.354.814-3.725 0-2.111-.715-3.852-2.14-5.223-1.427-1.37-3.31-2.055-5.65-2.055-3.88 0-7.93 1.799-12.153 5.395v-10.19c4.564-3.196 9.415-4.795 14.55-4.795 2.51 0 4.807.386 6.89 1.156 2.082.771 3.865 1.841 5.35 3.211a14.52 14.52 0 013.466 4.881c.827 1.884 1.24 3.939 1.24 6.165 0 3.082-.627 5.737-1.882 7.963a39.357 39.357 0 01-4.194 6.08 130.145 130.145 0 00-4.194 5.223c-1.256 1.656-1.883 3.454-1.883 5.394v1.97H54.251v-2.827z" id="Fill-10" fill="#FFF"/></g><g id="Group-17" transform="translate(130.187 189.712)"><path d="M.389 8.61v24.717a7.879 7.879 0 007.877 7.881h17.202c1.349 4.445 5.454 7.702 10.343 7.755.955.01 1.882-.103 2.767-.324a10.935 10.935 0 01-4.646-7.43h16.78a7.88 7.88 0 007.877-7.882V8.61A7.88 7.88 0 0050.71.73H8.266A7.879 7.879 0 00.39 8.61" id="Fill-13" fill="#03E59F"/><path d="M12.87 19.93a3.484 3.484 0 116.968-.001 3.484 3.484 0 01-6.969.001m12.576 0a3.484 3.484 0 116.967 0 3.484 3.484 0 11-6.967 0m12.576 0a3.483 3.483 0 116.967 0 3.484 3.484 0 11-6.967 0" id="Fill-15" fill="#FFF"/></g><g id="Group-24" transform="translate(68.243 20.608)"><g id="Group-20" transform="translate(194.23 48.315)"><mask id="mask-9" fill="#fff"><use xlink:href="#path-8"/></mask><path d="M165.76.424H26.753C12.505.424.955 11.978.955 26.234v80.949c0 14.254 11.55 25.81 25.8 25.81h54.95c-1.479 10.08-7.148 18.817-15.213 24.337a35.854 35.854 0 009.06 1.059c16.013-.172 29.455-10.839 33.874-25.396h56.333c14.249 0 25.8-11.556 25.8-25.81v-80.95c0-14.255-11.551-25.81-25.8-25.81" id="Fill-18" fill="#FC3E54" mask="url(#mask-9)"/></g><mask id="mask-11" fill="#fff"><use xlink:href="#path-10"/></mask><path id="Fill-21" fill="#FFF" mask="url(#mask-11)" d="M236.524 147.026h107.928V81.343H236.524z"/><path id="Fill-23" fill="#EFEFEF" mask="url(#mask-11)" d="M344.451 81.344l-53.963 34.66-53.965-34.66z"/></g><g id="Group-30" transform="translate(0 .651)"><g id="Group-27" transform="translate(0 285.691)"><mask id="mask-13" fill="#fff"><use xlink:href="#path-12"/></mask><path d="M0 .762c1.504 14.265 16.452 25.496 34.845 25.496h434.993c18.403 0 33.34-11.231 34.852-25.496H0z" id="Fill-25" fill="#EFEFEF" mask="url(#mask-13)"/></g><mask id="mask-15" fill="#fff"><use xlink:href="#path-14"/></mask><path id="Fill-28" fill="#CCC" mask="url(#mask-15)" d="M185.815 294.96h133.06v-8.507h-133.06z"/></g></g></g></g></g></svg>
